X: 788
T: Sangugu chuoshui
%%abc-version 2.0
%%abcx-abcm2ps-target-version 5.9.1 (29 Sep 2008)
%%abc-creator hum2abc beta
%%abcx-conversion-date 2013/10/02 07:52:31
%%abc-edited-by Helmut Schaffrath
%%humdrum-veritas 916592088
%%humdrum-veritas-data 1744610650
%%continueall 1
%%barnumbers 0
L: 1/16
M: 2/4
K: C
c2> A2 d2 d c [I:setbarnb 1]| 
A2 c AG4 | 
A2 A G E2 G E | 
D8 | 
G2 G G G2 C2 | 
D8 | 
G2 A2 G2 E2 | 
E2 E D C2 A,2 | 
G2 E D C2 A,2 | 
G,8 | 
E2 G2 D C A,2 | 
G,8 | 
E2> D2E4 | 
G2> A2E4 | 
G2> A2 E2 D2 | 
C2> A,2G,4 | 
c2> A2G4 | 
E G A cG4 | 
D2G4E D | 
C6D2 | 
G6E D | 
C8 |]  



